X: 173
M: 2/2
L: 1/8
K: G
|: B2cB |\
"2.f."c2c2 B2dB | c4 B2cB | A2BA G2D2 | B,2G,2 B2dB |\
c2c2 B2dB | c4 B2cB | A2BA G4 | G4 !segno!g2gd |
e2ec d2dB | c2cA B2BG | A2AF G2D2 | B,2G,2 g2gd |\
e2ec d2dB | c2cA B2BG | A2AF G4 | HG4 B2B2 |
c2c2 B2B2 | c4 B2cB | A2BA G2D2 | B,2G,2 B2B2 |\
c2c2 B2B2 | c4 B2cB | A2BA G4 | G4 !segno!y:|

